X:091
T: Shannon's Flowery Banks
N: O'Farrell's Pocket Companion v.1 (Sky ed. p.40)
% m.15 in the original includes a 6-element grace note which I have abbreviated to "ag"
% for better playback.
M: C
L: 1/8
R: march % ?
Q: 100 % ?
K: G
GA|B>cBG ceeg | d>e e/d/c/B/ Bc/d/A G/A/|B>cBG ceeg|
d>GA>B G3 ||G/A/|B>cBG ceeg | d>e e/d/c/B/ Bc/d/A G/A/|
B>cBG ce Hg f/e/|
d>GA>B G2 Bc|d>ed=f ecge|dG G/A/B/c/ B2 {cB}A B/c/|
ded=f ecHgf| e>cd>e c3e| d>edB c>dcA|BdGB B2 {AB}A G/A/|
BcBG ceg{ag}f/e/|d>GAB G2 ga| bb c'/b/a/g/ eg/a/g e|
de d/e/g/B/ BA/B/A g/a/|gg c'/b/a/g/ e>f{a}g>{f}e|d>G A>/G/A/B/ G2||
